X:101
T: Krippenlied (2-3) S. 16
N: P0876
O: Lothringen
S: PINCK, Louis: Verklingende Weisen, Bd 2, Metz 1928]
R: geistliche, religise Lieder]
M: 3/4
L: 1/8
K: G
D2 | G4A2 | B2A2d2 | ^c2d2e2 | d6 | A2B2^c2 | d4
Bc | d4e2 | d2c2B2 | c2B2A2 | B2A2
G2 | A4dc | B4A2 | G4

@@@ Tune index: 7651
